**kern	**kern	**dynam
*part1	*part1	*part1
*staff2	*staff1	*
*I"Piano	*	*
*clefF4	*clefG2	*
*k[f#]	*k[f#]	*
=1	=1	=1
*^	*^	*
*	*^	*	*	*
!	!	!	!LO:TX:b:i:t=accel. e cresc.	!	!
!	!	!	!LO:TX:a:B:t=a Tempo.	!	!
4rA	4rddyy	[2GG\	[2ddd	4r	.
.	.	.	.	((8qdd/	.
(4fn	[4G: [4B:	.	.	4ffn)	.
=	=	=	=	=	=
4f#X	2G] 2B]	4GG\]	2ddd]	4ff#X	<
4g)	.	4rCC	.	4gg)	.
*	*	*	*v	*v	*
=	=	=	=	=
!	!	!	!LO:TX:a:B:t=rall.	!
4rA	4rddyy	[2CC^^\	4aa-X	[
.	.	.	(8qaan/	ff
(4an^^	[4G: [4c: [4e:	.	[4eee)	.
=	=	=	=	=
*	*	*	*^	*
4a-X	2G] 2c] 2e]	4CC\]	2eee]	(4ee	>
4g)	.	4rCC	.	4gg)	.
*	*	*	*v	*v	*
=	=	=	=	=
!	!	!	!LO:TX:b:t=una corda	!
4rA	4rddyy	[2DD\	4r	] p
!	!	!	!LO:TX:b:i:t=dim.	!
.	.	.	(8qb/	.
[4g	(4e:	.	[4bb)	.
=	=	=	=	=
*	*	*	*^	*
2g]	4e-X	2DD\]	2bb]	(4b	.
.	4d)	.	.	4dd)	.
*	*	*	*v	*v	*
=	=	=	=	=
!	!	!	!LO:TX:a:B:t=rall.	!
4rA	4rddyy	[2DD\	4r	.
.	.	.	((8qcc/	sf >
[4f#	[4A: 4e:	.	[4ccc)	.
=	=	=	=	=
*	*	*	*^	*
2f#]	4A_ 4e-X	2DD\]	2ccc]	[4cc)	.
.	8A] 8d	.	.	8cc] 8dd	.
.	8r	.	.	8rdd	]
*v	*v	*v	*	*	*
*	*v	*v	*
=||	=||	=||
*-	*-	*-
!!!system-decoration: {(s1,s2)}
